dist/assets/images/icons/socials/insta.svg

<svg width="40" height="40" viewBox="0 0 40 40" fill="none" xmlns="http://www.w3.org/2000/svg">
<path fill-rule="evenodd" clip-rule="evenodd" d="M20 0C8.95431 0 0 8.95431 0 20C0 31.0457 8.95431 40 20 40C31.0457 40 40 31.0457 40 20C40 8.95431 31.0457 0 20 0ZM16.8763 20.001C16.8763 18.2807 18.2802 16.8768 20.0005 16.8768C21.7208 16.8768 23.1247 18.2807 23.1247 20.001C23.1247 21.7214 21.7208 23.1253 20.0005 23.1253C18.2802 23.1253 16.8763 21.7214 16.8763 20.001ZM29.3711 19.5278C29.371 19.6854 29.3708 19.8431 29.3708 20.001C29.3708 20.1776 29.3711 20.354 29.3713 20.5302C29.373 21.6449 29.3746 22.7531 29.3099 23.8682C29.2372 25.3682 28.8974 26.6971 27.7981 27.7964C26.7013 28.8932 25.37 29.2354 23.87 29.3081C22.7362 29.3719 21.6096 29.3706 20.476 29.3694C20.3184 29.3692 20.1607 29.369 20.0028 29.369C19.8453 29.369 19.6878 29.3692 19.5305 29.3694C18.3984 29.3706 17.2715 29.3719 16.1356 29.3081C14.6356 29.2354 13.3067 28.8956 12.2075 27.7964C11.1106 26.6995 10.7685 25.3682 10.6958 23.8682C10.632 22.7344 10.6333 21.606 10.6345 20.4735C10.6347 20.3161 10.6349 20.1586 10.6349 20.001C10.6349 19.8435 10.6347 19.686 10.6345 19.5287C10.6333 18.3966 10.632 17.2697 10.6958 16.1339C10.7685 14.6339 11.1083 13.305 12.2075 12.2057C13.3044 11.1089 14.6356 10.7667 16.1356 10.694C17.2694 10.6302 18.396 10.6315 19.5296 10.6327C19.6872 10.6329 19.8449 10.6331 20.0028 10.6331C20.1604 10.6331 20.3179 10.6329 20.4752 10.6327C21.6073 10.6315 22.7341 10.6302 23.87 10.694C25.37 10.7667 26.6989 11.1065 27.7981 12.2057C28.895 13.3026 29.2372 14.6339 29.3099 16.1339C29.3736 17.2676 29.3724 18.3942 29.3711 19.5278ZM15.1935 20.001C15.1935 22.6612 17.3403 24.8081 20.0005 24.8081C22.6606 24.8081 24.8075 22.6612 24.8075 20.001C24.8075 17.3409 22.6606 15.194 20.0005 15.194C17.3403 15.194 15.1935 17.3409 15.1935 20.001ZM23.8817 14.9971C23.8817 15.6182 24.3833 16.1198 25.0044 16.1198C25.1519 16.12 25.2979 16.0911 25.4342 16.0347C25.5705 15.9784 25.6944 15.8957 25.7986 15.7914C25.9029 15.6871 25.9856 15.5633 26.042 15.427C26.0983 15.2907 26.1272 15.1446 26.127 14.9971C26.127 14.376 25.6255 13.8745 25.0044 13.8745C24.3833 13.8745 23.8817 14.376 23.8817 14.9971Z" fill="#101112"/>
</svg>

<svg width="40" height="40" fill="none" xmlns="http://www.w3.org/2000/svg"><path fill-rule="evenodd" clip-rule="evenodd" d="M20 0C8.954 0 0 8.954 0 20s8.954 20 20 20 20-8.954 20-20S31.046 0 20 0zm-3.124 20.001A3.13 3.13 0 0120 16.877 3.13 3.13 0 0123.125 20 3.13 3.13 0 0120 23.125a3.13 3.13 0 01-3.124-3.124zm12.495-.473v1.002c.002 1.114.004 2.222-.061 3.337-.073 1.5-.413 2.83-1.512 3.928-1.097 1.097-2.428 1.44-3.928 1.512-1.134.064-2.26.063-3.394.061a372.725 372.725 0 00-.945 0c-1.133.002-2.26.003-3.395-.06-1.5-.074-2.83-.413-3.928-1.513-1.097-1.096-1.44-2.428-1.512-3.928-.064-1.134-.063-2.262-.062-3.394a371.78 371.78 0 000-.945c0-1.132-.002-2.26.062-3.395.072-1.5.412-2.829 1.511-3.928 1.097-1.097 2.429-1.44 3.929-1.512 1.133-.064 2.26-.063 3.394-.061a372.725 372.725 0 00.945 0c1.132-.001 2.26-.003 3.395.061 1.5.073 2.829.412 3.928 1.512 1.097 1.097 1.44 2.428 1.512 3.928.064 1.134.062 2.26.061 3.394zM15.194 20A4.8 4.8 0 0020 24.808a4.8 4.8 0 004.808-4.807A4.8 4.8 0 0020 15.194a4.8 4.8 0 00-4.806 4.807zm8.688-5.004a1.121 1.121 0 001.917.794 1.122 1.122 0 10-1.917-.794z" fill="#101112"/></svg>
